**kern
*staff3
*tb16
=1-
*clefF4
*k[b-e-]
*M4/4
2GG/
.
.
.
.
.
.
.
4G\
.
.
.
4r
.
.
.
=2
4r
.
.
.
4G\
.
.
.
4GG/
.
.
.
4r
.
.
.
=3
4GG/ 4G/
.
.
.
4GG/ 4G/
.
.
.
4r
.
.
.
4C\ 4G\
.
.
.
=4
2GG/ 2G/
.
.
.
.
.
.
.
4r
.
.
.
4C\ 4G\
.
.
.
=5
!!linebreak:original
2GG/ 2G/
.
.
.
.
.
.
.
4r
.
.
.
4BB-/
.
.
.
=6
4C/
.
.
.
4D\
.
.
.
4E-\
.
.
.
4F\
.
.
.
=7
2BB-/
.
.
.
.
.
.
.
4r
.
.
.
4E-\ 4B-\
.
.
.
=8
2BB-\ 2B-\
.
.
.
.
.
.
.
4r
.
.
.
4E-\ 4B-\
.
.
.
=9
2BB-\ 2B-\
.
.
.
.
.
.
.
4r
.
.
.
4C/
.
.
.
=10
!!linebreak:original
4D\
.
.
.
4r
.
.
.
4D\
.
.
.
4r
.
.
.
=11
2GG/
.
.
.
.
.
.
.
4G\
.
.
.
4r
.
.
.
=12
4r
.
.
.
4G\
.
.
.
2GG/
.
.
.
.
.
.
.
=13
4GG/ 4G/
.
.
.
4GG/ 4G/
.
.
.
4r
.
.
.
4D\
.
.
.
=14
!!linebreak:original
4AA/
.
.
.
4A\
.
.
.
4r
.
.
.
4D\
.
.
.
=15
4G\
.
.
.
4GG/
.
.
.
4r
.
.
.
4GG/
.
.
.
=16
4AA/
.
.
.
4r
.
.
.
4AA/
.
.
.
4r
.
.
.
=17
4D\
.
.
.
4r
.
.
.
4r
.
.
.
4D\
.
.
.
=18
!!linebreak:original
4.E-\
.
.
.
.
.
8D\
.
4C/
.
.
.
4D\
.
.
.
=19
4G\
.
.
.
4GG/
.
.
.
4r
.
.
.
4G\
.
.
.
=20
4C/
.
.
.
4r
.
.
.
4C#/
.
.
.
4r
.
.
.
=21
4D\ 4F#\
.
.
.
4r
.
.
.
4r
.
.
.
4GG/ 4G/
.
.
.
=22
2C\ 2G\
.
.
.
.
.
.
.
4GG/ 4G/
.
.
.
4GG/ 4G/
.
.
.
=23
!!linebreak:original
2C\ 2G\
.
.
.
.
.
.
.
4GG/ 4G/
.
.
.
4BB-/
.
.
.
=24
4C/
.
.
.
4D\
.
.
.
4E-\
.
.
.
4F\
.
.
.
=25
4BB-/
.
.
.
4r
.
.
.
4r
.
.
.
4BB-\ 4B-\
.
.
.
=26
2E-\ 2B-\
.
.
.
.
.
.
.
4BB-\ 4B-\
.
.
.
4BB-\ 4B-\
.
.
.
=27
2E-\ 2B-\
.
.
.
.
.
.
.
4BB-\ 4B-\
.
.
.
4C/
.
.
.
=28
!!linebreak:original
4D\
.
.
.
4r
.
.
.
4D\
.
.
.
4r
.
.
.
=29
2GG/
.
.
.
.
.
.
.
2G\
.
.
.
.
.
.
.
=30
4r
.
.
.
4G\
.
.
.
2GG/
.
.
.
.
.
.
.
=31
4GG/ 4G/
.
.
.
4GG/ 4G/
.
.
.
2r
.
.
.
.
.
.
.
==
*-
